symbols/web/border_style/materialsymbolsoutlined/border_style_wght600gradN25_40px.svg

<svg xmlns="http://www.w3.org/2000/svg" height="40" width="40"><path d="M4.917 35.125V4.917h30.208v3.208h-27v27Zm6.75 0v-3.208h3.208v3.208Zm6.75 0v-3.208h3.208v3.208Zm6.75 0v-3.208h3.208v3.208Zm6.75 0v-3.208h3.208v3.208Zm0-6.75v-3.208h3.208v3.208Zm0-6.75v-3.208h3.208v3.208Zm0-6.75v-3.208h3.208v3.208Z"/></svg>

<svg xmlns="http://www.w3.org/2000/svg" height="40" width="40"><path d="M25.167 35.125V31.917H28.375V35.125ZM31.917 35.125V31.917H35.125V35.125ZM11.667 35.125V31.917H14.875V35.125ZM18.417 35.125V31.917H21.625V35.125ZM31.917 28.375V25.167H35.125V28.375ZM31.917 21.625V18.417H35.125V21.625ZM4.917 35.125V4.917H35.125V8.125H8.125V35.125ZM31.917 14.875V11.667H35.125V14.875Z"/></svg>
